; generated by PrusaSlicer 2.2.0+win64 on 2022-02-27 at 20:33:49 UTC

; 

; external perimeters extrusion width = 0.45mm
; perimeters extrusion width = 0.45mm
; infill extrusion width = 0.45mm
; solid infill extrusion width = 0.45mm
; top infill extrusion width = 0.40mm
; first layer extrusion width = 0.42mm

M73 P0 R89
M73 Q0 S89
M201 X1000 Y1000 Z200 E5000 ; sets maximum accelerations, mm/sec^2
M203 X200 Y200 Z12 E120 ; sets maximum feedrates, mm/sec
M204 P1250 R1250 T1250 ; sets acceleration (P, T) and retract acceleration (R), mm/sec^2
M205 X8.00 Y8.00 Z0.40 E4.50 ; sets the jerk limits, mm/sec
M205 S0 T0 ; sets the minimum extruding and travel feed rate, mm/sec
M107
M862.3 P "MK3S" ; printer model check
M862.1 P0.4 ; nozzle diameter check
M115 U3.10.1 ; tell printer latest fw version
G90 ; use absolute coordinates
M83 ; extruder relative mode
M104 S215 ; set extruder temp
M140 S60 ; set bed temp
M190 S60 ; wait for bed temp
M109 S215 ; wait for extruder temp
G28 W ; home all without mesh bed level
G80 ; mesh bed leveling
G1 Y-3.0 F1000.0 ; go outside print area
G92 E0.0
G1 X60.0 E9.0 F1000.0 ; intro line
M73 Q0 S89
M73 P0 R89
G1 X100.0 E12.5 F1000.0 ; intro line
G92 E0.0
M221 S95

; Don't change E values below. Excessive value can damage the printer.
M907 E430 ; set extruder motor current
G21 ; set units to millimeters
G90 ; use absolute coordinates
M83 ; use relative distances for extrusion
M900 K0.05 ; Filament gcode LA 1.5
M900 K30 ; Filament gcode LA 1.0
;BEFORE_LAYER_CHANGE
G92 E0.0
;0.2


G1 E-0.80000 F2100.00000
G1 Z0.400 F10800.000
;AFTER_LAYER_CHANGE
;0.2
G1 X103.726 Y87.769
G1 Z0.200
G1 E0.80000 F2100.00000
M204 S1000
G1 F1200.000
G1 X105.641 Y85.642 E0.08973
G1 X107.770 Y83.725 E0.08985
G1 X110.088 Y82.040 E0.08985
G1 X112.570 Y80.607 E0.08985
G1 X115.131 Y79.464 E0.08794
G1 X116.599 Y78.944 E0.04884
G1 X119.366 Y78.210 E0.08977
G1 X122.141 Y77.773 E0.08806
G1 X125.003 Y77.623 E0.08985
G1 X127.860 Y77.773 E0.08973
G1 X130.691 Y78.221 E0.08985
G1 X133.459 Y78.962 E0.08985
G1 X136.078 Y79.965 E0.08794
G1 X137.484 Y80.636 E0.04884
G1 X139.960 Y82.073 E0.08977
G1 X142.231 Y83.726 E0.08806
G1 X144.358 Y85.641 E0.08973
G1 X146.275 Y87.770 E0.08985
G1 X147.928 Y90.041 E0.08806
G1 X149.364 Y92.516 E0.08973
G1 X150.035 Y93.922 E0.04884
G1 X151.038 Y96.542 E0.08798
G1 X151.779 Y99.310 E0.08985
G1 X152.227 Y102.137 E0.08973
G1 X152.377 Y104.999 E0.08985
G1 X152.227 Y107.860 E0.08985
G1 X151.790 Y110.635 E0.08806
G1 X151.056 Y113.401 E0.08973
G1 X150.536 Y114.869 E0.04884
G1 X149.392 Y117.431 E0.08798
G1 X147.959 Y119.913 E0.08985
G1 X146.274 Y122.231 E0.08985
G1 X144.359 Y124.358 E0.08973
G1 X142.230 Y126.275 E0.08985
G1 X139.959 Y127.928 E0.08806
G1 X137.484 Y129.364 E0.08973
G1 X136.078 Y130.035 E0.04884
G1 X133.458 Y131.038 E0.08798
G1 X130.690 Y131.779 E0.08985
G1 X127.863 Y132.227 E0.08973
G1 X125.001 Y132.377 E0.08985
G1 X122.140 Y132.227 E0.08985
G1 X119.365 Y131.790 E0.08806
G1 X116.599 Y131.056 E0.08973
G1 X115.131 Y130.536 E0.04884
G1 X112.569 Y129.392 E0.08798
G1 X110.087 Y127.959 E0.08985
G1 X107.769 Y126.274 E0.08985
G1 X105.642 Y124.359 E0.08973
G1 X103.725 Y122.230 E0.08985
G1 X102.072 Y119.959 E0.08806
G1 X100.636 Y117.484 E0.08973
G1 X99.965 Y116.078 E0.04884
G1 X98.962 Y113.458 E0.08798
G1 X98.221 Y110.690 E0.08985
G1 X97.773 Y107.863 E0.08973
G1 X97.623 Y105.001 E0.08985
G1 X97.773 Y102.140 E0.08985
G1 X98.210 Y99.365 E0.08806
G1 X98.944 Y96.599 E0.08973
G1 X99.464 Y95.131 E0.04884
G1 X100.608 Y92.569 E0.08798
G1 X102.041 Y90.087 E0.08985
G1 X103.690 Y87.818 E0.08797
; printing object mandala v8.stl id:0 copy 0
G1 F8640.000
G1 X105.641 Y85.642 E-0.67458
G1 X105.915 Y85.395 E-0.08542
G1 E-0.04000 F2100.00000
G1 Z0.600 F10800.000
G1 X122.361 Y104.999
G1 Z0.200
G1 E0.80000 F2100.00000
G1 F1200.000
G1 X122.526 Y104.396 E0.01960
G1 X122.711 Y103.976 E0.01440
G1 X122.953 Y103.590 E0.01428
G1 X123.249 Y103.247 E0.01422
G1 X123.593 Y102.951 E0.01422
G1 X123.978 Y102.708 E0.01428
G1 X124.399 Y102.523 E0.01440
G1 X125.001 Y102.357 E0.01959
G1 X125.604 Y102.522 E0.01959
G1 X126.025 Y102.707 E0.01440
G1 X126.411 Y102.949 E0.01428
G1 X126.755 Y103.244 E0.01422
G1 X127.051 Y103.588 E0.01422
G1 X127.294 Y103.973 E0.01428
G1 X127.480 Y104.393 E0.01440
G1 X127.646 Y104.996 E0.01960
G1 X127.481 Y105.598 E0.01960
G1 X127.296 Y106.019 E0.01440
G1 X127.054 Y106.404 E0.01428
G1 X126.758 Y106.748 E0.01422
G1 X126.414 Y107.044 E0.01422
G1 X126.029 Y107.287 E0.01428
G1 X125.608 Y107.472 E0.01440
G1 X125.006 Y107.637 E0.01959
G1 X124.403 Y107.472 E0.01959
G1 X123.982 Y107.288 E0.01440
G1 X123.597 Y107.046 E0.01428
G1 X123.252 Y106.750 E0.01422
G1 X122.956 Y106.407 E0.01422
G1 X122.713 Y106.022 E0.01428
G1 X122.527 Y105.602 E0.01440
G1 X122.377 Y105.057 E0.01772
G1 X122.752 Y104.999 F10800.000
G1 F1200.000
G1 X122.883 Y104.523 E0.01548
G1 X123.045 Y104.153 E0.01266
G1 X123.258 Y103.815 E0.01252
G1 X123.517 Y103.514 E0.01245
G1 X123.818 Y103.255 E0.01245
G1 X124.156 Y103.042 E0.01252
G1 X124.525 Y102.879 E0.01266
G1 X125.002 Y102.748 E0.01548
G1 X125.478 Y102.879 E0.01548
G1 X125.848 Y103.041 E0.01267
G1 X126.186 Y103.253 E0.01253
G1 X126.488 Y103.512 E0.01246
G1 X126.747 Y103.813 E0.01246
G1 X126.961 Y104.151 E0.01252
G1 X127.124 Y104.520 E0.01266
G1 X127.255 Y104.996 E0.01548
G1 X127.124 Y105.472 E0.01548
G1 X126.962 Y105.842 E0.01266
G1 X126.749 Y106.180 E0.01252
G1 X126.490 Y106.481 E0.01245
G1 X126.189 Y106.740 E0.01245
G1 X125.851 Y106.953 E0.01252
G1 X125.482 Y107.115 E0.01266
G1 X125.006 Y107.246 E0.01548
G1 X124.529 Y107.116 E0.01548
G1 X124.159 Y106.954 E0.01267
G1 X123.821 Y106.741 E0.01253
G1 X123.519 Y106.482 E0.01246
G1 X123.260 Y106.182 E0.01246
G1 X123.047 Y105.844 E0.01252
G1 X122.884 Y105.475 E0.01266
G1 X122.768 Y105.057 E0.01360
G1 X122.420 Y104.776 F10800.000
G1 F8640.000
G1 X122.883 Y104.523 E-0.12610
G1 X123.045 Y104.153 E-0.09322
G1 X123.258 Y103.815 E-0.09221
G1 X123.517 Y103.514 E-0.09171
G1 X123.818 Y103.255 E-0.09172
G1 X124.156 Y103.042 E-0.09224
G1 X124.525 Y102.879 E-0.09326
G1 X124.858 Y102.788 E-0.07955
G1 E-0.04000 F2100.00000
G1 Z0.600 F10800.000
G1 X100.804 Y105.632
G1 Z0.200
G1 E0.80000 F2100.00000
G1 F1200.000
G1 X100.787 Y105.000 E0.01982
G1 X100.821 Y103.733 E0.03975
G1 X100.920 Y102.469 E0.03975
G1 X101.085 Y101.212 E0.03975
G1 X101.316 Y99.966 E0.03975
G1 X101.612 Y98.733 E0.03975
G1 X101.972 Y97.518 E0.03975
G1 X102.396 Y96.323 E0.03975
G1 X102.881 Y95.152 E0.03975
G1 X103.426 Y94.008 E0.03975
G1 X104.031 Y92.894 E0.03975
G1 X104.694 Y91.813 E0.03975
G1 X105.412 Y90.768 E0.03975
G1 X106.183 Y89.762 E0.03975
G1 X107.006 Y88.799 E0.03975
G1 X107.879 Y87.879 E0.03975
G1 X108.799 Y87.006 E0.03975
G1 X109.762 Y86.183 E0.03975
G1 X110.768 Y85.412 E0.03975
G1 X111.813 Y84.694 E0.03975
G1 X112.894 Y84.031 E0.03975
G1 X114.008 Y83.426 E0.03975
G1 X115.152 Y82.881 E0.03975
G1 X116.323 Y82.396 E0.03975
G1 X117.518 Y81.972 E0.03975
G1 X118.733 Y81.612 E0.03975
G1 X119.966 Y81.316 E0.03975
G1 X121.212 Y81.085 E0.03975
G1 X122.469 Y80.920 E0.03975
G1 X123.733 Y80.821 E0.03974
G1 X125.021 Y80.788 E0.04040
G1 X126.267 Y80.821 E0.03910
G1 X127.531 Y80.920 E0.03975
G1 X128.788 Y81.085 E0.03975
G1 X130.034 Y81.316 E0.03975
G1 X131.267 Y81.612 E0.03975
G1 X132.482 Y81.972 E0.03975
G1 X133.677 Y82.396 E0.03975
G1 X134.848 Y82.881 E0.03975
G1 X135.992 Y83.426 E0.03975
G1 X137.106 Y84.031 E0.03975
G1 X138.187 Y84.694 E0.03975
G1 X139.232 Y85.412 E0.03975
G1 X140.238 Y86.183 E0.03975
G1 X141.201 Y87.006 E0.03975
G1 X142.121 Y87.879 E0.03975
G1 X142.994 Y88.799 E0.03975
G1 X143.817 Y89.762 E0.03975
G1 X144.588 Y90.768 E0.03975
G1 X145.306 Y91.813 E0.03975
G1 X145.969 Y92.894 E0.03975
G1 X146.574 Y94.008 E0.03975
G1 X147.119 Y95.152 E0.03975
G1 X147.604 Y96.323 E0.03975
G1 X148.028 Y97.518 E0.03975
G1 X148.388 Y98.733 E0.03975
G1 X148.684 Y99.966 E0.03975
G1 X148.915 Y101.212 E0.03975
G1 X149.080 Y102.469 E0.03975
G1 X149.179 Y103.733 E0.03975
G1 X149.213 Y105.000 E0.03975
G1 X149.179 Y106.267 E0.03975
G1 X149.080 Y107.531 E0.03975
G1 X148.915 Y108.788 E0.03975
G1 X148.684 Y110.034 E0.03975
G1 X148.388 Y111.267 E0.03975
G1 X148.028 Y112.482 E0.03975
G1 X147.604 Y113.677 E0.03975
G1 X147.119 Y114.848 E0.03975
G1 X146.574 Y115.992 E0.03975
G1 X145.969 Y117.106 E0.03975
G1 X145.306 Y118.187 E0.03975
G1 X144.588 Y119.232 E0.03975
G1 X143.817 Y120.238 E0.03975
G1 X142.994 Y121.201 E0.03975
G1 X142.121 Y122.121 E0.03975
G1 X141.201 Y122.994 E0.03975
G1 X140.238 Y123.817 E0.03975
G1 X139.232 Y124.588 E0.03975
G1 X138.187 Y125.306 E0.03975
G1 X137.106 Y125.969 E0.03975
G1 X135.992 Y126.574 E0.03975
G1 X134.848 Y127.119 E0.03975
G1 X133.677 Y127.604 E0.03975
G1 X132.482 Y128.028 E0.03975
G1 X131.267 Y128.388 E0.03975
G1 X130.034 Y128.684 E0.03975
G1 X128.788 Y128.915 E0.03975
G1 X127.531 Y129.080 E0.03975
G1 X126.267 Y129.179 E0.03975
G1 X125.000 Y129.213 E0.03975
G1 X123.733 Y129.179 E0.03975
G1 X122.469 Y129.080 E0.03975
G1 X121.212 Y128.915 E0.03975
G1 X119.966 Y128.684 E0.03975
G1 X118.733 Y128.388 E0.03975
G1 X117.518 Y128.028 E0.03975
G1 X116.323 Y127.604 E0.03975
G1 X115.152 Y127.119 E0.03975
G1 X114.008 Y126.574 E0.03975
G1 X112.894 Y125.969 E0.03975
G1 X111.813 Y125.306 E0.03975
G1 X110.768 Y124.588 E0.03975
G1 X109.762 Y123.817 E0.03975
G1 X108.799 Y122.994 E0.03975
G1 X107.879 Y122.121 E0.03975
G1 X107.006 Y121.201 E0.03975
G1 X106.183 Y120.238 E0.03975
G1 X105.412 Y119.232 E0.03975
G1 X104.694 Y118.187 E0.03975
G1 X104.031 Y117.106 E0.03975
G1 X103.426 Y115.992 E0.03975
G1 X102.881 Y114.848 E0.03975
G1 X102.396 Y113.677 E0.03975
G1 X101.972 Y112.482 E0.03975
G1 X101.612 Y111.267 E0.03975
G1 X101.316 Y110.034 E0.03975
G1 X101.085 Y108.788 E0.03975
G1 X100.920 Y107.531 E0.03975
G1 X100.821 Y106.267 E0.03975
G1 X100.805 Y105.692 E0.01805
G1 X100.429 Y105.702 F10800.000
G1 F1200.000
G1 X100.410 Y105.000 E0.02201
G1 X100.444 Y103.713 E0.04036
G1 X100.545 Y102.430 E0.04036
G1 X100.713 Y101.153 E0.04036
G1 X100.947 Y99.887 E0.04036
G1 X101.248 Y98.636 E0.04036
G1 X101.614 Y97.401 E0.04036
G1 X102.043 Y96.188 E0.04036
G1 X102.536 Y94.998 E0.04036
G1 X103.090 Y93.836 E0.04036
G1 X103.705 Y92.705 E0.04036
G1 X104.377 Y91.607 E0.04036
G1 X105.106 Y90.546 E0.04036
G1 X105.890 Y89.525 E0.04036
G1 X106.726 Y88.546 E0.04036
G1 X107.612 Y87.612 E0.04036
G1 X108.546 Y86.726 E0.04036
G1 X109.525 Y85.890 E0.04036
G1 X110.546 Y85.106 E0.04036
G1 X111.607 Y84.377 E0.04036
G1 X112.705 Y83.705 E0.04036
G1 X113.836 Y83.090 E0.04036
G1 X114.998 Y82.536 E0.04036
G1 X116.188 Y82.043 E0.04036
G1 X117.401 Y81.614 E0.04036
G1 X118.636 Y81.248 E0.04036
G1 X119.887 Y80.947 E0.04036
G1 X121.153 Y80.713 E0.04036
G1 X122.430 Y80.545 E0.04036
G1 X123.713 Y80.444 E0.04036
G1 X125.021 Y80.411 E0.04102
G1 X126.287 Y80.444 E0.03971
G1 X127.570 Y80.545 E0.04036
G1 X128.847 Y80.713 E0.04036
G1 X130.113 Y80.947 E0.04036
G1 X131.364 Y81.248 E0.04036
G1 X132.599 Y81.614 E0.04036
G1 X133.812 Y82.043 E0.04036
G1 X135.002 Y82.536 E0.04036
G1 X136.164 Y83.090 E0.04036
G1 X137.295 Y83.705 E0.04036
G1 X138.393 Y84.377 E0.04036
G1 X139.454 Y85.106 E0.04036
G1 X140.475 Y85.890 E0.04036
G1 X141.454 Y86.726 E0.04036
G1 X142.388 Y87.612 E0.04036
G1 X143.274 Y88.546 E0.04036
G1 X144.110 Y89.525 E0.04036
G1 X144.894 Y90.546 E0.04036
G1 X145.623 Y91.607 E0.04036
G1 X146.295 Y92.705 E0.04036
G1 X146.910 Y93.836 E0.04036
G1 X147.464 Y94.998 E0.04036
G1 X147.957 Y96.188 E0.04036
G1 X148.386 Y97.401 E0.04036
G1 X148.752 Y98.636 E0.04036
G1 X149.053 Y99.887 E0.04036
G1 X149.287 Y101.153 E0.04036
G1 X149.455 Y102.430 E0.04036
G1 X149.556 Y103.713 E0.04036
G1 X149.590 Y105.000 E0.04036
G1 X149.556 Y106.287 E0.04036
G1 X149.455 Y107.570 E0.04036
G1 X149.287 Y108.847 E0.04036
G1 X149.053 Y110.113 E0.04036
G1 X148.752 Y111.364 E0.04036
G1 X148.386 Y112.599 E0.04036
G1 X147.957 Y113.812 E0.04036
G1 X147.464 Y115.002 E0.04036
G1 X146.910 Y116.164 E0.04036
G1 X146.295 Y117.295 E0.04036
G1 X145.623 Y118.393 E0.04036
G1 X144.894 Y119.454 E0.04036
G1 X144.110 Y120.475 E0.04036
G1 X143.274 Y121.454 E0.04036
G1 X142.388 Y122.388 E0.04036
G1 X141.454 Y123.274 E0.04036
G1 X140.475 Y124.110 E0.04036
G1 X139.454 Y124.894 E0.04036
G1 X138.393 Y125.623 E0.04036
G1 X137.295 Y126.295 E0.04036
G1 X136.164 Y126.910 E0.04036
G1 X135.002 Y127.464 E0.04036
G1 X133.812 Y127.957 E0.04036
G1 X132.599 Y128.386 E0.04036
G1 X131.364 Y128.752 E0.04036
G1 X130.113 Y129.053 E0.04036
G1 X128.847 Y129.287 E0.04036
G1 X127.570 Y129.455 E0.04036
G1 X126.287 Y129.556 E0.04036
G1 X125.000 Y129.590 E0.04036
G1 X123.713 Y129.556 E0.04036
G1 X122.430 Y129.455 E0.04036
G1 X121.153 Y129.287 E0.04036
G1 X119.887 Y129.053 E0.04036
G1 X118.636 Y128.752 E0.04036
G1 X117.401 Y128.386 E0.04036
G1 X116.188 Y127.957 E0.04036
G1 X114.998 Y127.464 E0.04036
G1 X113.836 Y126.910 E0.04036
G1 X112.705 Y126.295 E0.04036
G1 X111.607 Y125.623 E0.04036
G1 X110.546 Y124.894 E0.04036
G1 X109.525 Y124.110 E0.04036
G1 X108.546 Y123.274 E0.04036
G1 X107.612 Y122.388 E0.04036
G1 X106.726 Y121.454 E0.04036
G1 X105.890 Y120.475 E0.04036
G1 X105.106 Y119.454 E0.04036
G1 X104.377 Y118.393 E0.04036
G1 X103.705 Y117.295 E0.04036
G1 X103.090 Y116.164 E0.04036
G1 X102.536 Y115.002 E0.04036
G1 X102.043 Y113.812 E0.04036
G1 X101.614 Y112.599 E0.04036
G1 X101.248 Y111.364 E0.04036
G1 X100.947 Y110.113 E0.04036
G1 X100.713 Y108.847 E0.04036
G1 X100.545 Y107.570 E0.04036
G1 X100.444 Y106.287 E0.04036
G1 X100.430 Y105.762 E0.01648
G1 X100.767 Y105.489 F10800.000
G1 F8640.000
G1 X100.410 Y105.000 E-0.17591
G1 X100.444 Y103.713 E-0.29726
G1 X100.541 Y102.475 E-0.28683
G1 E-0.04000 F2100.00000
G1 Z0.600 F10800.000
G1 X106.089 Y119.929
G1 Z0.200
G1 E0.80000 F2100.00000
G1 F1200.000
G1 X108.116 Y121.956 E0.09055
G1 X108.988 Y122.783 E0.03795
G1 X109.941 Y123.597 E0.03957
G1 X110.934 Y124.360 E0.03957
G1 X111.326 Y124.629 E0.01500
G1 X105.371 Y118.674 E0.26594
G1 X104.931 Y118.033 E0.02457
G1 X104.398 Y117.164 E0.03220
G1 X112.836 Y125.602 E0.37689
G1 X114.042 Y126.270 E0.04354
G1 X103.730 Y115.958 E0.46059
G1 X103.228 Y114.919 E0.03643
G1 X115.081 Y126.772 E0.52940
G1 X116.018 Y127.172 E0.03217
G1 X102.828 Y113.982 E0.58910
G1 X102.496 Y113.113 E0.02940
G1 X116.887 Y127.504 E0.64277
G1 X117.710 Y127.789 E0.02749
G1 X102.211 Y112.290 E0.69224
G1 X101.985 Y111.527 E0.02514
G1 X118.473 Y128.015 E0.73642
G1 X119.204 Y128.210 E0.02390
G1 X101.790 Y110.796 E0.77777
G1 X101.620 Y110.089 E0.02296
G1 X119.911 Y128.380 E0.81692
G1 X120.578 Y128.509 E0.02146
G1 X101.491 Y109.422 E0.85251
G1 X101.368 Y108.763 E0.02118
G1 X121.237 Y128.632 E0.88742
G1 X121.857 Y128.714 E0.01975
G1 X101.286 Y108.143 E0.91879
G1 X101.204 Y107.524 E0.01970
G1 X122.476 Y128.796 E0.95005
G1 X123.060 Y128.843 E0.01851
G1 X101.157 Y106.940 E0.97826
G1 X101.111 Y106.357 E0.01847
G1 X123.643 Y128.889 E1.00635
G1 X124.200 Y128.909 E0.01761
G1 X101.091 Y105.800 E1.03213
G1 X101.077 Y105.248 E0.01743
G1 X124.752 Y128.923 E1.05741
G1 X125.288 Y128.922 E0.01693
G1 X101.078 Y104.712 E1.08131
G1 X101.091 Y104.189 E0.01654
G1 X125.811 Y128.909 E1.10408
G1 X126.331 Y128.891 E0.01641
G1 X101.109 Y103.669 E1.12649
G1 X101.148 Y103.171 E0.01577
G1 X126.829 Y128.852 E1.14698
M73 Q1 S88
M73 P1 R88
G1 X127.327 Y128.812 E0.01577
G1 X101.188 Y102.673 E1.16747
G1 X101.242 Y102.190 E0.01534
G1 X127.810 Y128.758 E1.18660
G1 X128.284 Y128.696 E0.01512
G1 X101.304 Y101.716 E1.20501
G1 X101.368 Y101.242 E0.01510
G1 X128.758 Y128.632 E1.22336
G1 X129.211 Y128.548 E0.01456
G1 X101.452 Y100.789 E1.23985
G1 X101.536 Y100.336 E0.01456
G1 X129.664 Y128.464 E1.25633
G1 X130.111 Y128.374 E0.01440
G1 X101.626 Y99.889 E1.27226
G1 X101.730 Y99.455 E0.01407
G1 X130.545 Y128.270 E1.28696
G1 X130.978 Y128.166 E0.01407
G1 X101.834 Y99.022 E1.30166
G1 X101.947 Y98.599 E0.01385
G1 X131.401 Y128.053 E1.31553
G1 X131.816 Y127.930 E0.01365
G1 X102.070 Y98.184 E1.32855
G1 X102.193 Y97.770 E0.01365
G1 X132.230 Y127.807 E1.34158
G1 X132.634 Y127.674 E0.01343
G1 X102.326 Y97.366 E1.35365
G1 X102.467 Y96.969 E0.01329
G1 X133.031 Y127.533 E1.36509
G1 X133.427 Y127.393 E0.01329
G1 X102.607 Y96.573 E1.37653
